X:1
T:Title
%%score { ( 1 3 ) | 2 }
L:1/8
Q:1/4=108
M:4/4
K:Bb
V:1 treble nm="Grand Piano"
V:3 treble 
V:2 bass 
V:1
 [Fd]4 [Fc]2 [FB]2 | [^FA]3 G G4 | G4 A2 G2 | [DF]6 z2 | [Fd]4 [Fc]2 [FB]2 | [^FA]3 G G4 | %6
w: Will~H.~Ruebush * *||||||
 F4 F2 F2 | [DF]6 z2 | [Fd]4 [DB]2 [Fd]2 | [Ge]3 [Fd] [Fd]4 | [=Ec]4 [EG]2 [Ec]2 | F4 z4 | %12
w: ||||||
 z4 z2 d2 | [Ge]3 G G4 | F4 F2 F2 | [DF]6 z2 |] %16
w: ||||
V:2
 [B,,B,]4 [C,A,]2 [D,B,]2 | [E,C]3 [E,B,] [E,B,E]4 | [F,A,E]4 [F,CE]2 [F,A,E]2 | [B,,B,]6 z2 | %4
 [B,,B,]4 [C,A,]2 [D,B,]2 | [E,C]3 [E,B,] [E,B,E]4 | [F,A,C]4 [F,B,D]2 [F,CE]2 | [B,,B,]6 z2 | %8
 [B,,B,]4 [B,,B,]2 [B,,B,]2 | [B,,B,]3 [B,,B,] [B,,B,]4 | [C,G,]4 [C,C]2 [C,B,]2 | %11
 [F,A,]3 [F,B,D] [F,CE]4 | [B,DF]4 [B,EA]2 .[B,F_A]2 | [E,B,]3 [E,B,E] [E,B,E]4 | %14
 [F,A,C]4 [F,B,D]2 [F,CE]2 | [B,,B,]6 z2 |] %16
V:3
 x8 | x8 | x8 | x8 | x8 | x8 | x8 | x8 | x8 | x8 | x8 | z C2 F F4 | B4 c2 z B, | x8 | x8 | x8 |] %16

